adaptive-icons/Test-Icons--V5/editing/plus-filled-28.svg

<svg height="28" viewBox="0 0 28 28" width="28" xmlns="http://www.w3.org/2000/svg"><g fill="none" fill-rule="evenodd"><path d="m14 2.333c-6.444 0-11.667 5.223-11.667 11.667s5.223 11.667 11.667 11.667 11.667-5.224 11.667-11.667c0-6.444-5.224-11.667-11.667-11.667zm5.833 14h-3.5v3.5a2.336 2.336 0 0 1 -2.333 2.334 2.336 2.336 0 0 1 -2.333-2.334v-3.5h-3.5a2.336 2.336 0 0 1 -2.334-2.333 2.336 2.336 0 0 1 2.334-2.333h3.5v-3.5a2.336 2.336 0 0 1 2.333-2.334 2.336 2.336 0 0 1 2.333 2.334v3.5h3.5a2.336 2.336 0 0 1 2.334 2.333 2.336 2.336 0 0 1 -2.334 2.333z" fill="#282d37" fill-rule="nonzero"/><path d="m25.667 14c0 6.444-5.224 11.667-11.667 11.667-6.444 0-11.667-5.224-11.667-11.667 0-6.444 5.223-11.667 11.667-11.667s11.667 5.223 11.667 11.667zm-9.334 5.833v-3.5h3.5a2.336 2.336 0 0 0 2.334-2.333 2.336 2.336 0 0 0 -2.334-2.333h-3.5v-3.5a2.336 2.336 0 0 0 -2.333-2.334 2.336 2.336 0 0 0 -2.333 2.334v3.5h-3.5a2.336 2.336 0 0 0 -2.334 2.333 2.336 2.336 0 0 0 2.334 2.333h3.5v3.5a2.336 2.336 0 0 0 2.333 2.334 2.336 2.336 0 0 0 2.333-2.334z" stroke="#282d37" stroke-linecap="round" stroke-width="2.25"/></g></svg>

<svg xmlns="http://www.w3.org/2000/svg" id="3" width="28" height="28" viewBox="0 0 28 28"><g fill="none" fill-rule="evenodd" class="page-1"><g class="plus"><path fill="#282D37" fill-rule="nonzero" d="M14 2.333C7.556 2.333 2.333 7.556 2.333 14S7.556 25.667 14 25.667 25.667 20.443 25.667 14c0-6.444-5.224-11.667-11.667-11.667Zm5.833 14h-3.5v3.5A2.336 2.336 0 0 1 14 22.167a2.336 2.336 0 0 1-2.333-2.334v-3.5h-3.5A2.336 2.336 0 0 1 5.833 14a2.336 2.336 0 0 1 2.334-2.333h3.5v-3.5A2.336 2.336 0 0 1 14 5.833a2.336 2.336 0 0 1 2.333 2.334v3.5h3.5A2.336 2.336 0 0 1 22.167 14a2.336 2.336 0 0 1-2.334 2.333Z" class="fill"/><path stroke="#282D37" stroke-linecap="round" stroke-width="2.25" d="M25.667 14c0 6.444-5.224 11.667-11.667 11.667-6.444 0-11.667-5.224-11.667-11.667C2.333 7.556 7.556 2.333 14 2.333S25.667 7.556 25.667 14Zm-9.334 5.833v-3.5h3.5A2.336 2.336 0 0 0 22.167 14a2.336 2.336 0 0 0-2.334-2.333h-3.5v-3.5A2.336 2.336 0 0 0 14 5.833a2.336 2.336 0 0 0-2.333 2.334v3.5h-3.5A2.336 2.336 0 0 0 5.833 14a2.336 2.336 0 0 0 2.334 2.333h3.5v3.5A2.336 2.336 0 0 0 14 22.167a2.336 2.336 0 0 0 2.333-2.334Z" class="stroke"/></g></g></svg>
